X:15992
T:Stehn zwei Stern...
R:
O:Deutschland
A:
S:
B:Frau Nachtigall (Straburg - 1928)
Z:<anamnese@caramail.com> -- http://anamnese.fr.st
N:p.59
M:C
L:1/4
Q:1/4=150
K:A
E E | "D"F F/E/ "A"E c | c/B/ A "A"E E | "D"F d/B/ "E"c "E7"B |
"A"A2 "E"E d/ c/ | "E"B2 E e/ d/ | "A"c2 E E | "D"F d/B/ "E"c "E7"B | "A"A2 |]
